X:1
T:Each Step of the Way
T:Each Step of the Way
T:A. J. Robertson
T:Birdie Bell, 1903
T:Public Domain Courtesy of the Cyber Hymnal™
T:Public Domain Courtesy of the Cyber Hymnal™
C:A. J. Robertson
Z:Public Domain
Z:Courtesy of the Cyber Hymnal™
%%score ( 1 2 ) ( 3 4 )
L:1/8
Q:1/4=92
M:4/4
K:Ab
V:1 treble 
V:2 treble 
V:3 bass 
V:4 bass 
V:1
 [Ec]2 [DB]>[Ec] [DB] [CA]2 [EG] | [DF]2 [FA]>[DF] [CE]4 | [CE]2 [EA]>[EB] [Ec] [Ee]2 [Ec] | %3
w: 1.~Lead us, O Shep- herd, each|step of the way;|Fain would we wan- der, and|
w: 2.~Lead us, O Shep- herd, each|step of the way;|Teach us Thy man- dates, and|
w: 3.~Lead us, O Shep- herd, each|step of the way;|Guide by Thy coun- sels, lest|
 [FA]2 [FB]>[Ac] [GB]4 | [Ec]2 [DB]>[Ec] [DB] [CA]2 [EG] | [DF]2 [FA]>[DF] [CE]4 | %6
w: oft would we stray;|Keep us from dan- ger, and|save us from harm;|
w: help us o- bey;|Sweet are Thine ac- cents and|lov- ing Thy voice;|
w: foes should dis- may;|Green are Thy pas- tures, O|there would we feed;|
 [CE]2 [EA]>[EB] [Ec] [Ae]2 [Bd] | [Ac]2 [GB]>[GB] A4 ||"^Refrain" [Fd]2 [Fd]>[Fd] [Fd] [Fd]3 | %9
w: Per- ils sur- round us; temp-|ta- tions a- larm.||
w: Foll- ’wing Thy foot- steps, Thy|flock shall re- joice.|Hea- ven- ly Shep- herd,|
w: Down by still wa- ters Thy|sheep gent- ly lead.||
 [Ec]2 [Ec]>[Ec] [Ec]4 | [EB]2 [EB]>[Ec] [EB] [Ge]2 [EG] | ([=DB][FA]) [EG]>[DF] E4 | %12
w: |||
w: lead us each day;|Guide us in mer- cy each|step * of the way;|
w: |||
 [Ec]2 [DB]>[Ec] [DB] [CA]3 | [EA]2 [EB]>[_Gc] [Fd]4 | [Ec]2 [Ae]>[Af] [Ae] [Ac]2 A | %15
w: |||
w: Dan- gers are ma- ny,|safe is Thy fold;|Ga- ther, O ga- ther, Thy|
w: |||
 [GB]2 [Ac]>[EB] [EA]4 |] %16
w: |
w: sheep from the cold.|
w: |
V:2
 x8 | x8 | x8 | x8 | x8 | x8 | x8 | x4 A4 || x8 | x8 | x8 | x4 E4 | x8 | x8 | x7 A | x8 |] %16
V:3
 A,2 [E,G,]>[E,G,] A, A,2 [C,A,] | [D,A,]2 [D,A,]>[D,A,] [A,,A,]4 | %2
 [A,,A,]2 [C,A,]>[E,G,] A, [A,C]2 [A,C] | [F,C]2 [B,,=D]>[B,,D] [E,E]4 | %4
 A,2 [E,G,]>[E,G,] A, A,2 [C,A,] | [D,A,]2 [D,A,]>[D,A,] [A,,A,]4 | %6
 [A,,A,]2 [C,A,]>[E,G,] A, [A,C]2 [D,F] | [E,E]2 [E,D]>[E,D] [A,,C]4 || %8
 [D,A,]2 [D,A,]>[D,A,] [D,A,] [D,A,]3 | [A,,A,]2 [C,A,]>[E,A,] A,4 | %10
 [E,G,]2 [E,G,]>[E,A,] [E,G,] [E,B,]2 [E,B,] | [B,,B,]2 [B,,B,]>[B,,A,] [E,G,]4 | %12
 A,2 [E,G,]>[E,G,] A, A,3 | [C,A,]2 [E,G,]>A, [D,A,]4 | A,2 [A,C]>[A,D] [A,C] [A,E]2 [A,C] | %15
 [E,D]2 [E,E]>[E,D] [A,,C]4 |] %16
V:4
 A,2 A, A,2 x3 | x8 | x4 A, x3 | x8 | A,2 A, A,2 x3 | x8 | x4 A, x3 | x8 || x8 | x4 A,4 | x8 | x8 | %12
 A,2 A, A,3 x2 | x7/2 A,/ x4 | A,2 x6 | x8 |] %16

